X: 2088
T: Çayır İnce Biçemedim
C: (Anonim)
O: Turkey
F: http://compmusic.upf.edu/node/140
N: muhayyer--turku--sofyan--cayir_ince--
N: makam= muhayyer
N: form= turku
N: usul= sofyan = 4/4
M: 4/4
L: 1/16
K: C _2/4B ^3/4f  
Q: 1/4=90
%%MIDI tuningsystem comma53
DEFG ABcd c6B2  | BcBA G2B2 ABAG FED2  | 
w:  ARANAĞME  |   | 
DEFG ABcd c6B2  | BcBA G2B2 A4 z4  | \
w:   |   | 
DEFG ABcd c6B2  | 
w:  ARANAĞME  | 
BcBA G2B2 ABAG FED2  | DEFG ABcd c6B2  | 
w:   |   | 
BcBA G2B2 A4 defg  | a4 f2g2 a4 a4  | \
w:   |  *  Ça yır  in ce   | 
z2gf g2a2 g2=f2 e2d2  | 
w:  bi *  *  çe me *  dim    | 
d4 f2g2 a4 a4  | z2g=f g2a2 g2f2 e2d2  | \
w:  *  Ça yır  in ce   |  bi *  *  çe me *  dim    | 
d4 e2=f2 f3e e3d  | 
w:  *  So ğuk  su *  lar   | 
c2d4B2 cBcd B2A2  | A4 g2a2 g2=f2 e3d  | \
w:  i çe *  me *  *  *  dim    |  *  So ğuk  su *  lar   | 
c2d4B2 cBcd B3A  | 
w:  i çe *  me *  *  *  dim    | 
A4 f2g2 a4 a4  | z2gf g2a2 g2=f2 e2d2  | \
w:  *  Ba na  yâr dan   |  geç  *  *  di yor *  lar    | 
d4 f2g2 a4 a4  | z2gf g2a2 g2=f2 e2d2  | 
w:  *  Ba na  yâr dan   |  geç  *  *  di yor *  lar    | 
d4 e2=f2 f3e e3d  | c2d4B2 cBcd B2A2  | \
w:  *  Yâr  tat lı *  dır   |  ge çe *  me *  *  *  dim    | 
A4 g2a2 g2=f2 e2d2  | 
w:  *  Yâr  tat lı *  dır   | 
c2d4B2 cBcd B3A  | G2G2 A2B2 c4 B2A2  | \
w:  ge çe *  me *  *  *  dim    |  O lur  de sin ler   | 
A2BA G2BA A4 z4  | 
w:  ol maz  *  de sin *  ler    | 
G2G2 A2B2 c2c2 B3A  | A2BA G2BA A4 z4  | \
w:  Her kes  be ni  sa na   |  vur gun  *  de sin *  ler    | 
G2G2 A2B2 c2c2 B2A2  | 
w:  Me ram  bağ la rın da   | 
A2BA G2BA A4 z4  | G2G2 A2B2 c4 B2A2  | \
w:  kal dı  *  de sin *  ler    |  O lur  de sin ler   | 
A2BA G2BA A4 z4  | 
w:  ol maz  *  de sin *  ler    | 
G2G2 A2B2 c2c2 B3A  | A2BA G2BA A4 z4  | \
w:  Her kes  be ni  sa na   |  vur gun  *  de sin *  ler    | 
G2G2 A2B2 c2c2 B2A2  | 
w:  Me ram  bağ la rın da   | 
A2BA G2BA A4 z4  | DEFG ABcd c6B2  | \
w:  kal dı  *  de sin *  ler    |  ARANAĞME  | 
BcBA G2B2 ABAG FED2  | 
w:   | 
DEFG ABcd c6B2  | BcBA G2B2 A4 z4  | \
w:   |   | 
DEFG ABcd c6B2  | 
w:  ARANAĞME  | 
BcBA G2B2 ABAG FED2  | DEFG ABcd c6B2  | 
w:   |   | 
BcBA G2B2 A4 defg  | a4 f2g2 a4 a4  | \
w:   |  *  Ça yır  in ce   | 
z2gf g2a2 g2=f2 e2d2  | 
w:  bi *  *  çe me *  dim    | 
d4 f2g2 a4 a4  | z2g=f g2a2 g2f2 e2d2  | \
w:  *  Ça yır  in ce   |  bi *  *  çe me *  dim    | 
d4 e2=f2 f3e e3d  | 
w:  *  So ğuk  su *  lar   | 
c2d4B2 cBcd B2A2  | A4 g2a2 g2=f2 e3d  | \
w:  i çe *  me *  *  *  dim    |  *  So ğuk  su *  lar   | 
c2d4B2 cBcd B3A  | 
w:  i çe *  me *  *  *  dim    | 
A4 f2g2 a4 a4  | z2gf g2a2 g2=f2 e2d2  | \
w:  *  Ba na  yâr dan   |  geç  *  *  di yor *  lar    | 
d4 f2g2 a4 a4  | z2gf g2a2 g2=f2 e2d2  | 
w:  *  Ba na  yâr dan   |  geç  *  *  di yor *  lar    | 
d4 e2=f2 f3e e3d  | c2d4B2 cBcd B2A2  | \
w:  *  Yâr  tat lı *  dır   |  ge çe *  me *  *  *  dim    | 
A4 g2a2 g2=f2 e2d2  | 
w:  *  Yâr  tat lı *  dır   | 
c2d4B2 cBcd B3A  | G2G2 A2B2 c4 B2A2  | \
w:  ge çe *  me *  *  *  dim    |  O lur  de sin ler   | 
A2BA G2BA A4 z4  | 
w:  ol maz  *  de sin *  ler    | 
G2G2 A2B2 c2c2 B3A  | A2BA G2BA A4 z4  | \
w:  Her kes  be ni  sa na   |  vur gun  *  de sin *  ler    | 
G2G2 A2B2 c2c2 B2A2  | 
w:  Me ram  bağ la rın da   | 
A2BA G2BA A4 z4  | G2G2 A2B2 c4 B2A2  | \
w:  kal dı  *  de sin *  ler    |  O lur  de sin ler   | 
A2BA G2BA A4 z4  | 
w:  ol maz  *  de sin *  ler    | 
G2G2 A2B2 c2c2 B3A  | A2BA G2BA A4 z4  | \
w:  Her kes  be ni  sa na   |  vur gun  *  de sin *  ler    | 
G2G2 A2B2 c2c2 B2A2  | 
w:  Me ram  bağ la rın da   | 
A2BA G2BA A4 z4  | |


